X:4
T:Post No. 2 G. A. R.
S:American Veteran Fifer #4
C:Donated by John Benjamin, Fifer - Co. G, 80th Mich. Val. Inf.
M:2/4
L:1/16
Q:1/8=180
K:D 
%%MIDI program 72
%%MIDI transpose 8
%%MIDI ratio 3 1
|: AG | E2A2 A2cd | edef gfed | ea2a abag | ea2a a2g2 |
edA2- A2cd | edef gfed | ea2a gfed | cBAG A2 :|
|: A2 | A2a2 a4 | gfga gedB | G2g2 g4 | edef gedB |
A2a2 a4 | gfga gedB | gage dBGB | AcBG A2 :|



